X: 33207
T: Providence, The
R: reel
M: 4/4
K: Dmajor
|:EDCE DEFA|d2 fd gdfd|ed (3Bcd AdcA|(3Bcd AF EGFD|
E3 F DEFA|d2 fd gdfd|ed (3Bcd AdcA|(3Bcd AGFD D2:|
|:fddd fdad|fddd ec A2|fddd fdad|ceag fd d2|
fggf gfec|cBAF G2 FG|AA^GB ABde|(3fga ea fd d2:|

